X: 4397
T: BARN DANCE. (Carl Volti.)
N: Probably composed by Carl Volti, but we can't tell from the book.
%R: jig, slide, march
B: James Kerr "Merry Melodies" v.4 p.43 #397
Z: 2016 John Chambers <jc:trillian.mit.edu>
M: 12/8
L: 1/8
K: G
DEF |\
G2z B2z d3 B2G | d2G cde d3 B3 |\
[1,3 d2B g2d bag fed | edc BAG FGA DEF :|\
[2,4 DEF GAB EF^G ABc | Aed cBA G2z H|]
|:\
FG^G |\
A2F B2F A2F B2F | AB^c d2e f3 fgf |\
[1,3 agf e3 gfe d3 | Bcd e2^G A3 :|\
[2,4 efe bge ded afd | ^cde ABc "_D.C."d3 |]
[K:=f] |:[K:C] \
c'ba |\
g2a g2e c2d c2A | G2A G2E G3 GAB |\
[1,3 c3 cd^d e3 ef^f | g2a g2f d3 :|\
[2,4 c2d e2f ge'd' c'ba | gag fed c3 :|

%%sep 1 1 500
%%sep 1 1 500

